src/assets/svgs/emergency-repair.svg

<svg width="128" height="921" viewBox="0 0 128 921" fill="none" xmlns="http://www.w3.org/2000/svg">
<path d="M126.156 921H1.69027V879.172H20.437V900.43H51.3229V884.228H70.377V900.43H107.563V878.942H126.156V921Z" fill="#B1B1B1"/>
<path d="M126.156 869.948L1.69027 868.339V846.276L74.0648 836.049L1.69027 825.017V803.758L126.156 802.149V816.743L43.3325 818.467L126.156 829.269V842.254L42.7179 853.745L126.156 855.124V869.948Z" fill="#B1B1B1"/>
<path d="M126.156 788.693H1.69027V746.864H20.437V768.123H51.3229V751.92H70.377V768.123H107.563V746.634H126.156V788.693Z" fill="#B1B1B1"/>
<path d="M126.156 737.296H1.69027V711.67C1.69027 705.388 2.61224 699.949 4.45618 695.353C6.30012 690.756 9.62945 687.194 14.4442 684.666C19.1565 682.061 25.8663 680.759 34.5738 680.759C39.6959 680.759 44.2545 681.065 48.2497 681.678C52.2449 682.291 55.7279 683.44 58.6987 685.125C61.567 686.734 63.9744 689.071 65.9208 692.135L126.156 679.38V700.639L70.377 710.866V716.726H126.156V737.296ZM54.5498 716.726V710.981C54.5498 708.07 53.884 705.81 52.5522 704.201C51.1181 702.592 49.1205 701.481 46.5594 700.868C43.896 700.179 40.7203 699.834 37.0324 699.834C31.7055 699.834 27.5566 700.562 24.5858 702.018C21.615 703.473 20.1297 706.154 20.1297 710.061V716.726H54.5498Z" fill="#B1B1B1"/>
<path d="M128 645.044C128 651.479 126.207 656.573 122.622 660.327C119.036 664.005 114.017 666.648 107.563 668.256C101.007 669.789 93.4774 670.555 84.9748 670.555H43.1789C34.3689 670.555 26.7371 669.712 20.2833 668.027C13.8295 666.341 8.86115 663.468 5.37816 659.408C1.79272 655.271 0 649.679 0 642.631C0 635.736 1.53662 630.335 4.60985 626.428C7.68308 622.444 11.9344 619.61 17.3638 617.924C22.7931 616.239 29.1445 615.396 36.4178 615.396H44.4082V635.506H34.2665C31.603 635.506 29.1445 635.659 26.8908 635.966C24.6371 636.196 22.8443 636.808 21.5126 637.804C20.0784 638.724 19.3613 640.256 19.3613 642.401C19.3613 644.623 20.1809 646.231 21.8199 647.227C23.3565 648.223 25.3029 648.874 27.6591 649.181C30.0152 649.411 32.4738 649.526 35.0348 649.526H92.6579C95.4238 649.526 98.036 649.334 100.495 648.951C102.851 648.491 104.797 647.725 106.334 646.653C107.768 645.504 108.485 643.895 108.485 641.826C108.485 639.681 107.717 638.034 106.18 636.885C104.643 635.736 102.646 634.932 100.187 634.472C97.7287 634.012 95.1165 633.782 92.3506 633.782H77.7527V642.171H61.6183V615.281H126.156V628.841L115.861 629.99C119.344 631.216 122.263 633.016 124.619 635.391C126.873 637.766 128 640.984 128 645.044Z" fill="#B1B1B1"/>
<path d="M126.156 602.408H1.69027V560.579H20.437V581.838H51.3229V565.635H70.377V581.838H107.563V560.349H126.156V602.408Z" fill="#B1B1B1"/>
<path d="M126.156 551.011H1.69027V536.532L61.6183 517.456H1.69027V500.449H126.156V514.353L61.6183 533.429H126.156V551.011Z" fill="#B1B1B1"/>
<path d="M128 459.937C128 466.985 126.31 472.577 122.929 476.714C119.446 480.774 114.631 483.647 108.485 485.332C102.236 487.018 94.9116 487.861 86.5114 487.861H41.6423C33.0372 487.861 25.6615 487.018 19.515 485.332C13.2661 483.647 8.45138 480.774 5.07083 476.714C1.69028 472.577 0 466.985 0 459.937C0 453.042 1.53662 447.679 4.60985 443.849C7.58064 439.942 11.7807 437.184 17.2101 435.575C22.6395 433.966 28.8884 433.162 35.9568 433.162H46.7131V453.272H34.2665C31.8079 453.272 29.4518 453.387 27.1981 453.616C24.9444 453.77 23.1004 454.306 21.6663 455.225C20.1297 456.145 19.3613 457.715 19.3613 459.937C19.3613 462.082 20.1297 463.69 21.6663 464.763C23.2029 465.759 25.1493 466.41 27.5054 466.717C29.7591 466.946 32.1665 467.061 34.7275 467.061H93.2725C96.0384 467.061 98.5995 466.908 100.956 466.602C103.209 466.219 105.053 465.529 106.487 464.533C107.819 463.461 108.485 461.928 108.485 459.937C108.485 457.792 107.768 456.259 106.334 455.34C104.797 454.421 102.851 453.846 100.495 453.616C98.1385 453.387 95.7311 453.272 93.2725 453.272H80.2113V433.162H90.9676C98.036 433.162 104.387 433.966 110.022 435.575C115.553 437.107 119.958 439.827 123.237 443.734C126.412 447.564 128 452.965 128 459.937Z" fill="#B1B1B1"/>
<path d="M126.156 410.573H75.2941L1.69027 428.27V408.85L41.0276 400.001L1.69027 392.072V373.456L75.2941 390.808H126.156V410.573Z" fill="#B1B1B1"/>
<path d="M126.156 336.222H1.69027V310.596C1.69027 304.314 2.61224 298.875 4.45618 294.278C6.30012 289.682 9.62945 286.12 14.4442 283.592C19.1565 280.987 25.8663 279.684 34.5738 279.684C39.6959 279.684 44.2545 279.991 48.2497 280.604C52.2449 281.217 55.7279 282.366 58.6987 284.051C61.567 285.66 63.9744 287.997 65.9208 291.061L126.156 278.305V299.564L70.377 309.792V315.652H126.156V336.222ZM54.5498 315.652V309.907C54.5498 306.996 53.884 304.736 52.5522 303.127C51.1181 301.518 49.1205 300.407 46.5594 299.794C43.896 299.105 40.7203 298.76 37.0324 298.76C31.7055 298.76 27.5566 299.488 24.5858 300.943C21.615 302.399 20.1297 305.08 20.1297 308.987V315.652H54.5498Z" fill="#B1B1B1"/>
<path d="M126.156 267.319H1.69027V225.49H20.437V246.749H51.3229V230.546H70.377V246.749H107.563V225.26H126.156V267.319Z" fill="#B1B1B1"/>
<path d="M126.156 215.922H1.69027V184.666C1.69027 179.073 3.12445 174.477 5.99279 170.876C8.7587 167.275 12.8563 164.594 18.2857 162.832C23.6126 161.07 30.1176 160.189 37.8007 160.189C47.4302 160.189 54.8059 161.376 59.928 163.751C64.9476 166.126 68.4306 169.344 70.377 173.404C72.3233 177.464 73.2965 182.023 73.2965 187.079V195.353H126.156V215.922ZM54.0888 195.353V188.458C54.0888 185.93 53.4742 184.014 52.2449 182.712C51.0156 181.41 49.1717 180.567 46.7131 180.184C44.2545 179.724 41.1301 179.494 37.3397 179.494C34.1641 179.494 31.3982 179.686 29.042 180.069C26.5834 180.375 24.6371 181.18 23.2029 182.482C21.7687 183.785 21.0516 185.815 21.0516 188.573V195.353H54.0888Z" fill="#B1B1B1"/>
<path d="M126.156 160.254L1.69027 142.672V119.23L126.156 101.878V120.838L99.88 123.941V137.616L126.156 140.833V160.254ZM83.4382 135.777V125.895L34.8812 130.836L83.4382 135.777Z" fill="#B1B1B1"/>
<path d="M126.156 92.3651H1.69027V71.7956H126.156V92.3651Z" fill="#B1B1B1"/>
<path d="M126.156 57.9163H1.69027V32.2906C1.69027 26.0087 2.61224 20.5695 4.45618 15.9729C6.30012 11.3764 9.62945 7.8141 14.4442 5.28601C19.1565 2.68131 25.8663 1.37895 34.5738 1.37895C39.6959 1.37895 44.2545 1.68539 48.2497 2.29826C52.2449 2.91113 55.7279 4.06027 58.6987 5.74566C61.567 7.35445 63.9744 9.69102 65.9208 12.7554L126.156 0V21.2589L70.377 31.4862V37.3468H126.156V57.9163ZM54.5498 37.3468V31.6011C54.5498 28.69 53.884 26.43 52.5522 24.8213C51.1181 23.2125 49.1205 22.1016 46.5594 21.4888C43.896 20.7993 40.7203 20.4546 37.0324 20.4546C31.7055 20.4546 27.5566 21.1823 24.5858 22.6379C21.615 24.0935 20.1297 26.7748 20.1297 30.6818V37.3468H54.5498Z" fill="#B1B1B1"/>
</svg>

<svg width="128" height="921" fill="none" xmlns="http://www.w3.org/2000/svg"><path d="M126.156 921H1.69v-41.828h18.747v21.258h30.886v-16.202h19.054v16.202h37.186v-21.488h18.593V921ZM126.156 869.948 1.69 868.339v-22.063l72.375-10.227L1.69 825.017v-21.259l124.466-1.609v14.594l-82.823 1.724 82.823 10.802v12.985l-83.438 11.491 83.438 1.379v14.824ZM126.156 788.693H1.69v-41.829h18.747v21.259h30.886V751.92h19.054v16.203h37.186v-21.489h18.593v42.059ZM126.156 737.296H1.69V711.67c0-6.282.922-11.721 2.766-16.317 1.844-4.597 5.173-8.159 9.988-10.687 4.713-2.605 11.422-3.907 20.13-3.907 5.122 0 9.68.306 13.676.919 3.995.613 7.478 1.762 10.449 3.447 2.868 1.609 5.275 3.946 7.222 7.01l60.235-12.755v21.259l-55.779 10.227v5.86h55.779v20.57Zm-71.606-20.57v-5.745c0-2.911-.666-5.171-1.998-6.78-1.434-1.609-3.431-2.72-5.993-3.333-2.663-.689-5.839-1.034-9.527-1.034-5.326 0-9.475.728-12.446 2.184-2.971 1.455-4.456 4.136-4.456 8.043v6.665h34.42ZM128 645.044c0 6.435-1.793 11.529-5.378 15.283-3.586 3.678-8.605 6.321-15.059 7.929-6.556 1.533-14.086 2.299-22.588 2.299H43.179c-8.81 0-16.442-.843-22.896-2.528-6.454-1.686-11.422-4.559-14.905-8.619C1.793 655.271 0 649.679 0 642.631c0-6.895 1.537-12.296 4.61-16.203 3.073-3.984 7.324-6.818 12.754-8.504 5.43-1.685 11.78-2.528 19.054-2.528h7.99v20.11H34.266c-2.663 0-5.121.153-7.375.46-2.254.23-4.047.842-5.378 1.838-1.435.92-2.152 2.452-2.152 4.597 0 2.222.82 3.83 2.459 4.826 1.537.996 3.483 1.647 5.84 1.954 2.355.23 4.814.345 7.375.345h57.623c2.766 0 5.378-.192 7.837-.575 2.356-.46 4.302-1.226 5.839-2.298 1.434-1.149 2.151-2.758 2.151-4.827 0-2.145-.768-3.792-2.305-4.941-1.537-1.149-3.534-1.953-5.993-2.413-2.458-.46-5.07-.69-7.836-.69H77.753v8.389H61.618v-26.89h64.538v13.56l-10.295 1.149c3.483 1.226 6.402 3.026 8.758 5.401 2.254 2.375 3.381 5.593 3.381 9.653ZM126.156 602.408H1.69v-41.829h18.747v21.259h30.886v-16.203h19.054v16.203h37.186v-21.489h18.593v42.059ZM126.156 551.011H1.69v-14.479l59.928-19.076H1.69v-17.007h124.466v13.904l-64.538 19.076h64.538v17.582ZM128 459.937c0 7.048-1.69 12.64-5.071 16.777-3.483 4.06-8.298 6.933-14.444 8.618-6.249 1.686-13.573 2.529-21.974 2.529H41.642c-8.605 0-15.98-.843-22.127-2.529-6.249-1.685-11.064-4.558-14.444-8.618C1.69 472.577 0 466.985 0 459.937c0-6.895 1.537-12.258 4.61-16.088 2.97-3.907 7.17-6.665 12.6-8.274 5.43-1.609 11.678-2.413 18.747-2.413h10.756v20.11H34.266c-2.458 0-4.814.115-7.068.344-2.254.154-4.098.69-5.532 1.609-1.536.92-2.305 2.49-2.305 4.712 0 2.145.769 3.753 2.305 4.826 1.537.996 3.483 1.647 5.84 1.954 2.253.229 4.66.344 7.221.344h58.545c2.766 0 5.328-.153 7.684-.459 2.253-.383 4.097-1.073 5.531-2.069 1.332-1.072 1.998-2.605 1.998-4.596 0-2.145-.717-3.678-2.151-4.597-1.537-.919-3.483-1.494-5.839-1.724a74.642 74.642 0 0 0-7.223-.344h-13.06v-20.11h10.756c7.068 0 13.419.804 19.054 2.413 5.531 1.532 9.936 4.252 13.215 8.159 3.175 3.83 4.763 9.231 4.763 16.203ZM126.156 410.573H75.294L1.69 428.27v-19.42l39.338-8.849-39.338-7.929v-18.616l73.604 17.352h50.862v19.765ZM126.156 336.222H1.69v-25.626c0-6.282.922-11.721 2.766-16.318 1.844-4.596 5.173-8.158 9.988-10.686 4.713-2.605 11.422-3.908 20.13-3.908 5.122 0 9.68.307 13.676.92 3.995.613 7.478 1.762 10.449 3.447 2.868 1.609 5.275 3.946 7.222 7.01l60.235-12.756v21.259l-55.779 10.228v5.86h55.779v20.57Zm-71.606-20.57v-5.745c0-2.911-.666-5.171-1.998-6.78-1.434-1.609-3.431-2.72-5.993-3.333-2.663-.689-5.839-1.034-9.527-1.034-5.326 0-9.475.728-12.446 2.183-2.971 1.456-4.456 4.137-4.456 8.044v6.665h34.42ZM126.156 267.319H1.69V225.49h18.747v21.259h30.886v-16.203h19.054v16.203h37.186V225.26h18.593v42.059ZM126.156 215.922H1.69v-31.256c0-5.593 1.434-10.189 4.303-13.79 2.766-3.601 6.863-6.282 12.293-8.044 5.327-1.762 11.832-2.643 19.515-2.643 9.63 0 17.005 1.187 22.127 3.562 5.02 2.375 8.503 5.593 10.449 9.653 1.946 4.06 2.92 8.619 2.92 13.675v8.274h52.859v20.569Zm-72.067-20.569v-6.895c0-2.528-.615-4.444-1.844-5.746-1.23-1.302-3.073-2.145-5.532-2.528-2.459-.46-5.583-.69-9.373-.69-3.176 0-5.942.192-8.298.575-2.459.306-4.405 1.111-5.84 2.413-1.433 1.303-2.15 3.333-2.15 6.091v6.78h33.037ZM126.156 160.254 1.69 142.672V119.23l124.466-17.352v18.96l-26.276 3.103v13.675l26.276 3.217v19.421Zm-42.718-24.477v-9.882l-48.557 4.941 48.557 4.941ZM126.156 92.365H1.69v-20.57h124.466v20.57ZM126.156 57.916H1.69V32.291c0-6.282.922-11.721 2.766-16.318C6.3 11.376 9.63 7.814 14.444 5.286c4.713-2.605 11.422-3.907 20.13-3.907 5.122 0 9.68.306 13.676.92 3.995.612 7.478 1.761 10.449 3.447 2.868 1.608 5.275 3.945 7.222 7.01L126.156 0v21.259L70.377 31.486v5.86h55.779v20.57ZM54.55 37.346v-5.745c0-2.911-.666-5.171-1.998-6.78-1.434-1.609-3.431-2.72-5.993-3.332-2.663-.69-5.839-1.034-9.527-1.034-5.326 0-9.475.727-12.446 2.183-2.971 1.455-4.456 4.137-4.456 8.044v6.665h34.42Z" fill="#B1B1B1"/></svg>
